X: 41501
T: Uirchill A' Chreagain
R: waltz
M: 3/4
K: Dmajor
A4||d4ed|B/A/A3 AB|d/d f4 e/|e4 dz|B4 z/.d/.e/.f/|g4 fe|
f/a3/2 a2 fe|d4- df|f e4 d|B4 fe||d4 ed|B/A/A3 AB|d/d/ d3 ff|
(3f/e/d/ e4 d|B4 z/.d/.e/.f/|g4 fe|fa bg fd|f4 ez|d4d2|d2||

